public/flags/1.svg

<svg width="40" height="40" viewBox="0 0 40 40" fill="none" xmlns="http://www.w3.org/2000/svg">
<circle cx="20" cy="20" r="20" fill="white"/>
<circle cx="20.001" cy="20" r="18.0952" fill="#F2F0F2"/>
<mask id="mask0_101_14183" style="mask-type:alpha" maskUnits="userSpaceOnUse" x="1" y="1" width="38" height="38">
<circle cx="20.0015" cy="20" r="18.0952" fill="#FCFCFC"/>
</mask>
<g mask="url(#mask0_101_14183)">
<rect x="7.78027" y="34.0244" width="24.8809" height="4.52381" fill="#D90026"/>
<rect x="7.78027" y="34.0244" width="24.8809" height="4.52381" fill="#D90026"/>
<rect x="2.354" y="24.9766" width="35.7381" height="4.52381" fill="#D90026"/>
<rect x="2.354" y="24.9766" width="35.7381" height="4.52381" fill="#D90026"/>
<rect x="2.354" y="15.4771" width="35.7381" height="4.52381" fill="#D90026"/>
<rect x="2.354" y="15.4771" width="35.7381" height="4.52381" fill="#D90026"/>
<rect x="2.354" y="6.4292" width="35.7381" height="4.52381" fill="#D90026"/>
<rect x="2.354" y="6.4292" width="35.7381" height="4.52381" fill="#D90026"/>
<rect x="1.90625" y="1.90479" width="18.5476" height="18.0952" fill="#0052B5"/>
<path d="M16.8383 17.0606L15.4812 17.7392L15.9336 16.382L15.0288 15.4773H16.386L16.8383 14.1201L17.5169 15.4773H18.6479L17.7431 16.382L18.1955 17.7392L16.8383 17.0606Z" fill="#EFEFEF"/>
<path d="M10.4956 17.0606L9.13842 17.7392L9.5908 16.382L8.68604 15.4773H10.0432L10.4956 14.1201L11.1741 15.4773H12.3051L11.4003 16.382L11.8527 17.7392L10.4956 17.0606Z" fill="#EFEFEF"/>
<path d="M4.16353 17.0606L2.80638 17.7392L3.25877 16.382L2.354 15.4773H3.71115L4.16353 14.1201L4.8421 15.4773H5.97305L5.06829 16.382L5.52067 17.7392L4.16353 17.0606Z" fill="#EFEFEF"/>
<path d="M16.8383 12.0845L15.4812 12.7631L15.9336 11.4059L15.0288 10.5012H16.386L16.8383 9.14404L17.5169 10.5012H18.6479L17.7431 11.4059L18.1955 12.7631L16.8383 12.0845Z" fill="#EFEFEF"/>
<path d="M16.8383 7.10649L15.4812 7.78506L15.9336 6.42792L15.0288 5.52316H16.386L16.8383 4.16602L17.5169 5.52316H18.6479L17.7431 6.42792L18.1955 7.78506L16.8383 7.10649Z" fill="#EFEFEF"/>
<path d="M16.8383 2.13042L15.4812 2.80899L15.9336 1.45185L15.0288 0.547084H16.386L16.8383 -0.810059L17.5169 0.547084H18.6479L17.7431 1.45185L18.1955 2.80899L16.8383 2.13042Z" fill="#EFEFEF"/>
<path d="M10.4956 7.10649L9.13842 7.78506L9.5908 6.42792L8.68604 5.52316H10.0432L10.4956 4.16602L11.1741 5.52316H12.3051L11.4003 6.42792L11.8527 7.78506L10.4956 7.10649Z" fill="#EFEFEF"/>
<path d="M10.4956 12.0845L9.13842 12.7631L9.5908 11.4059L8.68604 10.5012H10.0432L10.4956 9.14404L11.1741 10.5012H12.3051L11.4003 11.4059L11.8527 12.7631L10.4956 12.0845Z" fill="#EFEFEF"/>
<path d="M4.16353 12.0845L2.80638 12.7631L3.25877 11.4059L2.354 10.5012H3.71115L4.16353 9.14404L4.8421 10.5012H5.97305L5.06829 11.4059L5.52067 12.7631L4.16353 12.0845Z" fill="#EFEFEF"/>
</g>
</svg>

<svg xmlns="http://www.w3.org/2000/svg" width="40" height="40" fill="none" viewBox="0 0 40 40"><circle cx="20" cy="20" r="20" fill="#fff"/><circle cx="20.001" cy="20" r="18.095" fill="#f2f0f2"/><mask id="a" width="38" height="38" x="1" y="1" maskUnits="userSpaceOnUse" style="mask-type:alpha"><circle cx="20.002" cy="20" r="18.095" fill="#fcfcfc"/></mask><g mask="url(#a)"><path fill="#d90026" d="M7.78 34.024h24.881v4.524H7.78z"/><path fill="#d90026" d="M7.78 34.024h24.881v4.524H7.78zm-5.426-9.047h35.738v4.524H2.354z"/><path fill="#d90026" d="M2.354 24.977h35.738v4.524H2.354zm0-9.5h35.738v4.524H2.354z"/><path fill="#d90026" d="M2.354 15.477h35.738v4.524H2.354zm0-9.048h35.738v4.524H2.354z"/><path fill="#d90026" d="M2.354 6.429h35.738v4.524H2.354z"/><path fill="#0052b5" d="M1.906 1.905h18.548V20H1.906z"/><path fill="#efefef" d="m16.838 17.06-1.357.68.453-1.358-.905-.905h1.357l.452-1.357.679 1.357h1.13l-.904.905.453 1.357zm-6.342 0-1.358.68.453-1.358-.905-.905h1.357l.453-1.357.678 1.357h1.131l-.905.905.453 1.357zm-6.332 0-1.358.68.453-1.358-.905-.905h1.357l.453-1.357.678 1.357h1.131l-.905.905.453 1.357zm12.674-4.975-1.357.678.453-1.357-.905-.905h1.357l.452-1.357.679 1.357h1.13l-.904.905.453 1.357zm0-4.979-1.357.68.453-1.358-.905-.905h1.357l.452-1.357.679 1.357h1.13l-.904.905.453 1.357zm0-4.976-1.357.679.453-1.357-.905-.905h1.357l.452-1.357.679 1.357h1.13l-.904.905.453 1.357zm-6.342 4.976-1.358.68.453-1.358-.905-.905h1.357l.453-1.357.678 1.357h1.131l-.905.905.453 1.357zm0 4.979-1.358.678.453-1.357-.905-.905h1.357l.453-1.357.678 1.357h1.131l-.905.905.453 1.357zm-6.332 0-1.358.678.453-1.357-.905-.905h1.357l.453-1.357.678 1.357h1.131l-.905.905.453 1.357z"/></g></svg>
